X:10
T: 10. Quadrille du loup garou - 4me partie
C: Willie Ringuette / Columbia 34115-F / novembre 1927
M:2/2
L:1/8
K:D
"A"Ad|f2fg fedB | ((3ABA) F2 AFAd | BGGG BGBG | FFAG FFAd |!
f2fg fedB | A2F2 AFAd | BGB2 B2c2 | Addd d2:|| |:!
"B"ag|fdfa ffdf | afgg g2gf | eceg eceg | baaa a2ag |!
fdfa ffdf | afgg g2g2 | eceg eceg | fdec d2:||





